X:1
T: The Golden Jubilee Reel
C:Muriel A Johnstone
R:Reel
%Q: 232
K:D
M:4/4
L:1/8
|:AB1/2c1/2|d2 d2 AB de|f2 f2 de fg|a2 a2 ba gf|g2 e2 c2 A2|
d2 d2 AB de|f2 f2 de fg|a2 fa ge cA|d2 f2 d2 fg|
a4 b4|a3g f2 f2|e2 ef gf ed|cA Bc de fg|
a4 b4|a3g f2 f2|e2 ef ge cA|d2 f2 d2:|
